UNB/img/about/pictograms-1.svg

<svg width="50" height="50" viewBox="0 0 50 50" fill="none" xmlns="http://www.w3.org/2000/svg">
<path d="M36.5007 48.4375H35.3757V40.625C35.3757 40.3141 35.6273 40.0625 35.9382 40.0625C39.9366 40.0625 43.1882 36.8109 43.1882 32.8125V28.125C43.1882 27.8141 43.4398 27.5625 43.7507 27.5625H46.8757C47.2304 27.5625 47.5398 27.3906 47.7241 27.0891C47.9101 26.7891 47.9273 26.4328 47.7663 26.1156L43.2757 19.0516C43.2179 18.9609 43.1882 18.8562 43.1882 18.75V17.1875C43.1882 7.05156 37.7507 2.125 26.5632 2.125H25.5632V13.5H30.2007C31.0476 12.5172 32.296 11.9375 33.5945 11.9375C36.0585 11.9375 38.0632 13.9422 38.0632 16.4062C38.0632 18.8703 36.0585 20.875 33.5945 20.875C32.296 20.875 31.0476 20.2953 30.2007 19.3125H25.5632V28.125C25.5632 28.4359 25.3116 28.6875 25.0007 28.6875H19.532C19.3554 28.6875 19.1898 28.6047 19.0835 28.4625C18.4491 27.625 17.4491 27.125 16.407 27.125C14.5632 27.125 13.0632 28.625 13.0632 30.4688C13.0632 32.3125 14.5632 33.8125 16.407 33.8125C17.4491 33.8125 18.4507 33.3125 19.0835 32.475C19.1898 32.3344 19.3554 32.25 19.532 32.25H25.0007C25.3116 32.25 25.5632 32.5016 25.5632 32.8125V48.4375H24.4382V33.375H19.8007C18.9538 34.3578 17.7054 34.9375 16.407 34.9375C13.9429 34.9375 11.9382 32.9328 11.9382 30.4688C11.9382 28.0047 13.9429 26 16.407 26C17.7038 26 18.9507 26.5797 19.8007 27.5625H24.4382V18.75C24.4382 18.4391 24.6898 18.1875 25.0007 18.1875H30.4695C30.646 18.1875 30.8132 18.2703 30.9179 18.4109C31.5507 19.25 32.5523 19.75 33.5945 19.75C35.4382 19.75 36.9382 18.25 36.9382 16.4062C36.9382 14.5625 35.4382 13.0625 33.5945 13.0625C32.5523 13.0625 31.5507 13.5625 30.9179 14.4016C30.8132 14.5422 30.646 14.625 30.4695 14.625H25.0007C24.6898 14.625 24.4382 14.3734 24.4382 14.0625V2.125H23.4382C12.2507 2.125 6.81321 7.05156 6.81321 17.1875V18.75C6.81321 18.8562 6.78196 18.9609 6.72571 19.0516L2.2054 26.1656C2.07571 26.4328 2.09133 26.7891 2.27727 27.0891C2.46321 27.3891 2.77258 27.5625 3.12571 27.5625H6.25071C6.56165 27.5625 6.81321 27.8141 6.81321 28.125V32.8125C6.81321 36.8109 10.0663 40.0625 14.0632 40.0625C14.3741 40.0625 14.6257 40.3141 14.6257 40.625V48.4375H13.5007V41.1688C9.1429 40.8781 5.68821 37.2406 5.68821 32.8125V28.6875H3.12571C2.38508 28.6875 1.71008 28.3109 1.31946 27.6797C0.928833 27.0484 0.894458 26.275 1.22727 25.6109L5.68821 18.5859V17.1875C5.68821 6.44531 11.6601 1 23.4382 1H26.5632C38.3413 1 44.3132 6.44531 44.3132 17.1875V18.5875L48.7445 25.5625C49.1054 26.2766 49.071 27.05 48.682 27.6813C48.2913 28.3109 47.6163 28.6891 46.8757 28.6891H44.3132V32.8125C44.3132 37.2406 40.857 40.8781 36.5007 41.1688V48.4375Z" fill="#4A98F7"/>
</svg>

<svg width="50" height="50" fill="none" xmlns="http://www.w3.org/2000/svg"><path d="M36.5 48.438h-1.124v-7.813c0-.31.251-.563.562-.563a7.257 7.257 0 007.25-7.25v-4.687c0-.31.252-.563.563-.563h3.125a.973.973 0 00.848-.473.976.976 0 00.042-.973l-4.49-7.064a.56.56 0 01-.088-.302v-1.563c0-10.135-5.437-15.062-16.625-15.062h-1V13.5h4.638a4.505 4.505 0 013.393-1.563 4.474 4.474 0 014.47 4.47 4.474 4.474 0 01-4.47 4.468 4.505 4.505 0 01-3.393-1.563h-4.638v8.813c0 .31-.251.563-.562.563h-5.469a.559.559 0 01-.448-.226 3.379 3.379 0 00-2.677-1.337 3.348 3.348 0 00-3.344 3.344c0 1.843 1.5 3.343 3.344 3.343 1.042 0 2.044-.5 2.677-1.337a.563.563 0 01.448-.225h5.469c.31 0 .562.252.562.563v15.624h-1.125V33.376h-4.637a4.505 4.505 0 01-3.394 1.563 4.474 4.474 0 01-4.469-4.47A4.474 4.474 0 0116.407 26c1.297 0 2.544.58 3.394 1.563h4.637V18.75c0-.31.252-.563.563-.563h5.468a.56.56 0 01.449.224 3.373 3.373 0 002.676 1.339c1.844 0 3.344-1.5 3.344-3.344 0-1.843-1.5-3.343-3.344-3.343-1.042 0-2.043.5-2.676 1.339a.56.56 0 01-.448.223H25a.562.562 0 01-.562-.563V2.126h-1c-11.187 0-16.625 4.927-16.625 15.063v1.562c0 .106-.031.21-.087.302l-4.52 7.114c-.13.267-.115.623.071.923a.98.98 0 00.849.474H6.25c.31 0 .562.251.562.562v4.688c0 3.998 3.253 7.25 7.25 7.25.311 0 .563.251.563.562v7.813H13.5v-7.27c-4.358-.29-7.813-3.927-7.813-8.355v-4.126H3.126c-.74 0-1.416-.376-1.807-1.007a2.11 2.11 0 01-.092-2.07l4.461-7.024v-1.398C5.688 6.444 11.66 1 23.438 1h3.125c11.778 0 17.75 5.445 17.75 16.188v1.4l4.431 6.974c.361.715.327 1.488-.062 2.12a2.115 2.115 0 01-1.806 1.007h-2.563v4.123c0 4.429-3.456 8.066-7.812 8.357v7.269z" fill="#4A98F7"/></svg>
